!!!COM: Palestrina, Giovanni Perluigi da
!!!OPR: Missa In te Domine speravi (1593-4)
!!!OMD: Credo
!!!OTL: Crucifixus
**kern	**kern	**kern
*Itenor	*Icalto	*Icant
!Tenor	!Altus	!Cantus
*clefGv2	*clefG2	*clefG2
*k[]	*k[]	*k[]
*D:dor	*D:dor	*D:dor
*M4/2	*M4/2	*M4/2
=72	=72	=72
0A	1r	0r
.	[1e	.
=73	=73	=73
1c	1e]	0r
1B	1g	.
=74	=74	=74
2A	1f	0r
1d	.	.
.	2e	.
2c	[2a	.
=75	=75	=75
2A	2a]	1r
2B	2g	.
2c	2e	[1a
[2d	[2f	.
=76	=76	=76
2d]	2f]	1a]
4c	4e	.
4B	4d	.
4A	2e	1cc
4G	.	.
2A	2f	.
=77	=77	=77
2G	1g	1b
1g	.	.
.	1d	2a
2f	.	[2dd
=78	=78	=78
2d	0r	2dd]
2e	.	2cc
2f	.	2a
4e	.	2b
4d	.	.
=79	=79	=79
4c	2r	1cc
4B	.	.
2A	1a	.
1e	.	1b
.	[2g	.
=80	=80	=80
1d	2g]	1dd
.	2f	.
1r	2e	2cc
.	2d	2b
=81	=81	=81
2r	1f	2a
1a	.	1cc
.	1e	.
[2g	.	[2b
=82	=82	=82
2g]	2r	4b]
.	.	4g
2f	2d	4a
.	.	4b
2e	2c	2cc
2d	2B	[2dd
=83	=83	=83
1f	2A	4dd]
.	.	4cc
.	1a	4cc
.	.	8b
.	.	8a
1e	.	1b
.	2g#	.
=84	=84	=84
2r	1a	[0a
1f	.	.
.	2r	.
2d	[2f	.
=85	=85	=85
2.f	2f]	1a]
.	2d	.
4g	.	.
2a	2f	2r
2e	2g	[2cc
=86	=86	=86
0f	4a	2cc]
.	4b	.
.	1cc	2a
.	.	2cc
.	4b	2dd
.	4a	.
=87	=87	=87
1e	2.g	4ee
.	.	4ff
.	.	1gg
.	4a	.
2.d	2b-	.
.	[2a	4ff
4c	.	4ee
=88	=88	=88
4A	2a]	2ff
4B	.	.
2.c	4g	2.ee
.	4f	.
.	2.g	.
4B	.	4dd
2G	.	[2dd
.	4f	.
=89	=89	=89
1A	1e	2dd]
.	.	2cc#
2r	4d	1dd
.	4e	.
2d	4f	.
.	4g	.
=90	=90	=90
2c	1a	2r
2f	.	2a
2e	2r	2g
2A	2a	2cc
=91	=91	=91
2e	2g	2b
2f	2cc	2a
2.g	2b	2dd
.	2e	2ee
8f	.	.
8e	.	.
=92	=92	=92
1d	2a	1ff
.	2b	.
4c	2cc	[1ee
4d	.	.
4e	4b	.
4f	4a	.
=93	=93	=93
1g	2b	2ee]
.	1cc	4dd
.	.	4cc
1g	.	1dd
.	2b	.
=94	=94	=94
2r	1cc	0ee
2c	.	.
1c	2r	.
.	2cc	.
=95	=95	=95
1A	1cc	2r
.	.	2cc
2r	1a	1cc
2f	.	.
=96	=96	=96
1f	4cc	2a
.	4b	.
.	4a	2cc
.	4g	.
2d	4f	4dd
.	4g	4cc
2f	[2a	4b
.	.	4a
=97	=97	=97
2.e	4a]	1b
.	8g#	.
.	8f#	.
.	2g#	.
4d	.	.
4c	2a	2a
4A	.	.
[2d	2f	2a
=98	=98	=98
2d]	1e	1ee
2c#	.	.
1d	2r	1ff
.	2d	.
=99	=99	=99
1r	1a	1.ee
1A	1cc	.
.	.	2ff
=100	=100	=100
1e	2b	1gg
.	1cc	.
1f	.	2aa
.	[2dd	2ff
=101	=101	=101
2e	4dd]	2gg
.	4cc	.
2f	2.cc	4ff
.	.	4ee
1g	.	1dd
.	8b	.
.	8a	.
.	2b	.
=102	=102	=102
4a	2cc	0cc
4g	.	.
4f	2a	.
4e	.	.
2f	2a	.
2e	2g	.
=103	=103	=103
1d	2.f	2r
.	.	2dd
.	4f	.
1A	2e	2dd
.	[2a	2cc
=104	=104	=104
1e	2a]	2.b
.	1g	.
.	.	4b
2r	.	[1a
2d	4f	.
.	4e	.
=105	=105	=105
2d	4f	1a]
.	4g	.
2c	1a	.
2.B	.	[1dd
.	2g#	.
4B	.	.
=106	=106	=106
0A	2.a	2dd]
.	.	4cc
.	4g	4b
.	2f	4cc
.	.	4dd
.	2e	[2ee
=107	=107	=107
1d	1f	2ee]
.	.	2dd
2c	1e	[1ee
2A	.	.
=108	=108	=108
2.c	2r	1ee]
.	2e	.
4c	.	.
2c	2.g	1r
2B	.	.
.	4g	.
=109	=109	=109
2c	2g	2r
2d	2f	2a
4e	2g	2.cc
8d	.	.
8e	.	.
2f	[2a	.
.	.	4cc
=110	=110	=110
1e	4a]	2cc
.	8g#	.
.	8f#	.
.	2g#	2b
2r	1a	2cc
2d	.	2dd
=111	=111	=111
2c	2r	4ee
.	.	8dd
.	.	8ee
2A	2a	2ff
2c	2g	1ee
[2c	2e	.
=112	=112	=112
2c]	2g	2r
2B	1g	2dd
[1A	.	2cc
.	2f	2a
=113	=113	=113
1A]	2.e	2cc
.	.	1cc
.	4f	.
2G	1g	.
2g	.	2b
=114	=114	=114
2f	2d	1a
2d	2dd	.
2.f	2cc	2a
.	[2a	2dd
4g	.	.
=115	=115	=115
1a	2a]	2cc
.	2.cc	2a
1A	.	2cc
.	4b	.
.	[2a	2cc
=116	=116	=116
0e	2a]	1b
.	4g#	.
.	4f#	.
.	2g#	2r
.	2g#	[2ee
=117	=117	=117
1c#	1a	2ee]
.	.	2ee
2.d	2r	1ff
.	[2a	.
4d	.	.
=118	=118	=118
1A	2a]	2ee
.	2a	2cc
2r	1cc	2ee
[2e	.	2ee
=119	=119	=119
2e]	2b	4gg
.	.	4ff
2e	2g	4ee
.	.	4dd
1f	2a	4cc
.	.	4b
.	2a	4cc
.	.	4dd
=120	=120	=120
2e	1cc	2.ee
2c	.	.
.	.	4ff
2e	2cc	2.gg
2e	4b	.
.	4a	8ff
.	.	8ee
=121	=121	=121
4g	4b	2dd
4f	4a	.
4e	4g	2.ee
4d	4f	.
4c	2e	.
4B	.	4dd
4c	[2a	2cc
4d	.	.
=122	=122	=122
2.e	2a]	1b
.	4g#	.
4d	4f#	.
2e	2g#	1r
[2f	2a	.
=123	=123	=123
4f]	2d	1r
4e	.	.
1d	2f	.
.	[1e	2r
4c#	.	[2ee
4B	.	.
=124	=124	=124
1c#	1e]	2ee]
.	.	2ee
1d	2r	1ff
.	[2a	.
=125	=125	=125
1A	2a]	2ee
.	2a	2cc
1r	1b-	2dd
.	.	2dd
=126	=126	=126
1r	2a	1ff
.	2f	.
2r	2a	[1ee
[2A	2a	.
=127	=127	=127
2A]	4cc	2ee]
.	4b	.
2A	4a	2cc
.	4g	.
1B-	4f	2dd
.	4e	.
.	4f	2dd
.	4g	.
=128	=128	=128
2A	2.a	1.ff
2F	.	.
.	4b	.
2A	1cc	.
2A	.	4ee
.	.	4dd
=129	=129	=129
4c	2g	4ee
4B	.	4dd
4A	2.a	4cc
4G	.	4b
4F	.	4a
4E	4g	8b
.	.	8cc
4F	2f	[2dd
4G	.	.
=130	=130	=130
1A	1e	2dd]
.	.	2cc
2.B-	1d	2.dd
4A	.	4cc
=131	=131	=131
0G	0g	0b-
=132	=132	=132
0d	0f#	0a
*-	*-	*-
!!!CDT: 1525/^1526/-1594/2/2
!!!OCY: Italia
!!!AGN: Mass (Parody)
!!!AST: renaissance, vocal
!!!ASW: Motet (?Lhéritier)
!!!PWK: Masses, Book 6
!!!RNB: Cadence finals: A
!!!YOR: Le Opere Complete, v. 21, p. 26
!!!YOO: Rome, Italy: Fratelli Scalera
!!!END: 1992//
!!!EED: John Miller
!!!YEC: Copyright 2000, John Miller
!!!YEN: United States of America
!!!YEM: Rights to all derivative electronic formats reserved.
!!!YEM: Refer to licensing agreement for further details.
!!!YEM: This file must be accompanied by the licensing agreement.
!!!YEM: A copy of the licensing agreement may be found at http://www.music-cog.ohio-state.edu/HumdrumDatabases/Palestrina/license.txt
!!!EMD: converted to Humdrum by Bret Aarden
